lib/logotmp/nrk-logo-nrk-vestland-title-below-on-dark.svg

<svg width="68" height="41" viewBox="0 0 68 41" fill="none" xmlns="http://www.w3.org/2000/svg">
<path d="M0 17.9976V5.99865H4V17.9976H0ZM9.24381 7.90834L11.5081 17.9976H7.19917L4.49549 5.99865H6.91217C7.46635 5.99146 8.00406 6.18681 8.4245 6.54795C8.84562 6.89394 9.08495 7.37426 9.24381 7.90834ZM12 17.9976V5.99865H16V17.9976H12ZM19.0105 10.5617C18.5862 10.5658 18.1687 10.4548 17.8025 10.2405C17.4412 10.0317 17.1411 9.73152 16.9323 9.37016C16.7178 9.00389 16.6068 8.58632 16.611 8.16188C16.6061 7.74002 16.7172 7.32494 16.9323 6.96199C17.1433 6.60455 17.4431 6.30765 17.8025 6.10008C18.1689 5.88606 18.5862 5.77507 19.0105 5.77894C19.4322 5.7744 19.8471 5.88549 20.2102 6.10008C20.566 6.30947 20.8626 6.60612 21.072 6.96199C21.2868 7.32504 21.3979 7.74005 21.3933 8.16188C21.3973 8.58629 21.2863 9.00379 21.072 9.37016C20.8649 9.72993 20.5679 10.0298 20.2102 10.2405C19.8471 10.4555 19.4324 10.5666 19.0105 10.5617ZM22 17.9976V5.99865H26V17.9976H22ZM30.9737 12.5558C30.9848 12.5674 31.0693 12.7054 31.2272 12.9698C31.3851 13.2342 31.5906 13.5722 31.8439 13.9838C32.0974 14.3953 32.3649 14.8318 32.6463 15.2936C32.9278 15.7553 33.1926 16.1919 33.4408 16.6033C33.6881 17.0147 33.9697 17.4795 34.2857 17.9976H29.9598C29.6893 17.5582 29.4441 17.161 29.2245 16.8061C29.0048 16.4512 28.7713 16.0681 28.5238 15.6569C28.2758 15.2461 28.0306 14.8461 27.7882 14.457C27.5458 14.0679 27.3375 13.7272 27.1633 13.4346C26.9883 13.1419 26.8671 12.9447 26.7997 12.8431C26.6325 12.591 26.5336 12.2999 26.5127 11.9981C26.5294 11.7085 26.6226 11.4285 26.7828 11.1867C26.8503 11.074 26.9743 10.874 27.1545 10.5867C27.3348 10.2994 27.546 9.95861 27.7882 9.56428C28.0304 9.16995 28.2756 8.76716 28.5238 8.35593C28.772 7.9447 29.0055 7.55879 29.2245 7.19826C29.4445 6.83811 29.6897 6.43814 29.9598 5.99837H34.2857L30.9396 11.4571C30.8361 11.6191 30.7777 11.8059 30.7706 11.9981C30.7818 12.1999 30.8528 12.3939 30.9737 12.5558Z" fill="white"/>
<g clip-path="url(#clip0_5918_1186)">
<path d="M8.76533 23.01H10.5218L6.35022 35.0011H4.15467L0 23.01H1.89156L4.35733 30.4073C4.49244 30.7901 4.62474 31.1983 4.75422 31.6318C4.8837 32.0653 5.01037 32.5016 5.13422 32.9407C5.19896 33.1743 5.26089 33.3967 5.32 33.6134C5.3763 33.4079 5.43541 33.194 5.49733 32.9744C5.61556 32.5466 5.73941 32.1187 5.86889 31.6909C5.99837 31.263 6.12504 30.8577 6.24889 30.4749L8.76533 23.01ZM18.4173 29.0224C18.5581 29.6304 18.589 30.3285 18.5102 31.1167H12.4077C12.4302 31.5473 12.4893 31.9189 12.5907 32.2313C12.7201 32.6254 12.9116 32.9379 13.1649 33.1687C13.4182 33.3995 13.7307 33.5627 14.1022 33.6584C14.4738 33.7541 14.9129 33.802 15.4196 33.802C15.6673 33.802 15.915 33.7879 16.1627 33.7598C16.4104 33.7316 16.6524 33.6866 16.8889 33.6247C17.1253 33.5627 17.3533 33.4924 17.5729 33.4136C17.7924 33.3347 18.0092 33.2559 18.2231 33.1771L18.1049 34.4776C17.8009 34.6352 17.4969 34.7647 17.1929 34.866C16.8889 34.9673 16.5652 35.0433 16.2218 35.094C15.8784 35.1447 15.4815 35.17 15.0311 35.17C14.0853 35.17 13.2859 35.0039 12.6329 34.6718C11.9799 34.3396 11.4873 33.8499 11.1551 33.2024C10.823 32.555 10.6569 31.7697 10.6569 30.8464C10.6569 30.1484 10.7498 29.515 10.9356 28.9464C11.1213 28.3779 11.3916 27.8909 11.7462 27.4856C12.1009 27.0802 12.5316 26.765 13.0382 26.5398C13.5449 26.3146 14.1191 26.202 14.7609 26.202C15.4027 26.202 15.9741 26.309 16.4751 26.5229C16.9761 26.7368 17.3899 27.0549 17.7164 27.4771C18.043 27.8993 18.2766 28.4144 18.4173 29.0224ZM12.6582 28.9296C12.5541 29.2054 12.4865 29.5404 12.4443 29.9176H16.8861C16.8861 29.5798 16.8467 29.2617 16.7622 28.9718C16.6327 28.5214 16.4047 28.1696 16.0782 27.9162C15.7517 27.6629 15.3182 27.5362 14.7778 27.5362C14.2373 27.5362 13.8207 27.6516 13.4604 27.8824C13.1001 28.1133 12.8327 28.4623 12.6582 28.9296ZM25.9582 31.1167C25.7893 30.9365 25.5923 30.7817 25.3671 30.6522C25.1419 30.5227 24.9055 30.413 24.6578 30.3229C24.4776 30.2666 24.3003 30.2075 24.1258 30.1456C23.9513 30.0836 23.7767 30.0273 23.6022 29.9767C23.4277 29.926 23.2588 29.8725 23.0956 29.8162C22.9323 29.7599 22.7831 29.698 22.648 29.6304C22.5016 29.5516 22.3693 29.4672 22.2511 29.3771C22.1329 29.287 22.0372 29.1801 21.964 29.0562C21.8908 28.9324 21.8542 28.7916 21.8542 28.634C21.8542 28.4539 21.8936 28.299 21.9724 28.1696C22.0513 28.0401 22.1695 27.9303 22.3271 27.8402C22.4847 27.7501 22.6733 27.6826 22.8929 27.6376C23.1124 27.5925 23.363 27.57 23.6444 27.57C23.7683 27.57 23.9034 27.5756 24.0498 27.5869C24.1962 27.5981 24.3566 27.6179 24.5311 27.646C24.7056 27.6741 24.8801 27.7107 25.0547 27.7558C25.2292 27.8008 25.4065 27.8515 25.5867 27.9078C25.7668 27.9641 25.9301 28.026 26.0764 28.0936L26.1947 26.7256C25.9807 26.6355 25.7696 26.5567 25.5613 26.4891C25.353 26.4216 25.1419 26.3653 24.928 26.3202C24.7141 26.2752 24.503 26.2442 24.2947 26.2273C24.0864 26.2104 23.8809 26.202 23.6782 26.202C23.1716 26.202 22.7099 26.2555 22.2933 26.3624C21.8767 26.4694 21.5136 26.627 21.204 26.8353C20.8944 27.0436 20.6551 27.3082 20.4862 27.6291C20.3173 27.95 20.2329 28.33 20.2329 28.7691C20.2329 29.0844 20.2779 29.363 20.368 29.6051C20.4581 29.8472 20.5763 30.0527 20.7227 30.2216C20.869 30.3904 21.0407 30.5396 21.2378 30.6691C21.4348 30.7986 21.6459 30.9084 21.8711 30.9984C21.995 31.0435 22.1244 31.0885 22.2596 31.1336C22.3947 31.1786 22.527 31.2208 22.6564 31.2602C22.7859 31.2996 22.9126 31.339 23.0364 31.3784C23.1603 31.4179 23.2813 31.4573 23.3996 31.4967C23.5178 31.5361 23.6332 31.5727 23.7458 31.6064C23.9034 31.6627 24.0498 31.7275 24.1849 31.8007C24.32 31.8739 24.4354 31.9527 24.5311 32.0371C24.6268 32.1216 24.7 32.2201 24.7507 32.3327C24.8013 32.4453 24.8267 32.5691 24.8267 32.7042C24.8267 32.9857 24.7338 33.2081 24.548 33.3713C24.3622 33.5346 24.1201 33.65 23.8218 33.7176C23.5234 33.7851 23.2053 33.8189 22.8676 33.8189C22.6874 33.8189 22.4876 33.8048 22.268 33.7767C22.0484 33.7485 21.8176 33.7091 21.5756 33.6584C21.3335 33.6078 21.0858 33.5459 20.8324 33.4727C20.5791 33.3995 20.323 33.3179 20.064 33.2278L20.1316 34.6633C20.4243 34.7647 20.6917 34.8463 20.9338 34.9082C21.1759 34.9701 21.4067 35.0236 21.6262 35.0687C21.8458 35.1137 22.0597 35.1419 22.268 35.1531C22.4763 35.1644 22.6874 35.17 22.9013 35.17C23.3967 35.17 23.864 35.1221 24.3031 35.0264C24.7422 34.9307 25.125 34.7816 25.4516 34.5789C25.7781 34.3762 26.0342 34.1116 26.22 33.7851C26.4058 33.4586 26.4987 33.0701 26.4987 32.6198C26.4987 32.282 26.4508 31.9921 26.3551 31.75C26.2594 31.5079 26.1271 31.2968 25.9582 31.1167ZM32.9756 33.6416C32.8799 33.6584 32.7841 33.6753 32.6884 33.6922C32.5927 33.7091 32.4999 33.7204 32.4098 33.726C32.3197 33.7316 32.2353 33.7344 32.1564 33.7344C31.8637 33.7344 31.6132 33.6838 31.4049 33.5824C31.1966 33.4811 31.0361 33.3319 30.9236 33.1349C30.811 32.9379 30.7547 32.6986 30.7547 32.4171V27.7389H33.136L33.3218 26.3878H30.7547V23.7193L29.032 24.3273V26.3878H27.7316L27.5458 27.7389H29.032V32.7718C29.032 33.1546 29.0827 33.4839 29.184 33.7598C29.2853 34.0356 29.4176 34.2636 29.5809 34.4438C29.7442 34.6239 29.9356 34.7647 30.1551 34.866C30.3747 34.9673 30.6083 35.0405 30.856 35.0856C31.1037 35.1306 31.3458 35.1531 31.5822 35.1531C31.7624 35.1531 31.9397 35.1475 32.1142 35.1362C32.2887 35.125 32.4492 35.1081 32.5956 35.0856C32.7419 35.063 32.8799 35.0377 33.0093 35.0096C33.1388 34.9814 33.2486 34.9561 33.3387 34.9336L33.44 33.5318C33.3837 33.5543 33.3162 33.574 33.2373 33.5909C33.1585 33.6078 33.0713 33.6247 32.9756 33.6416ZM37.8902 33.7598C37.8396 33.7654 37.7804 33.7682 37.7129 33.7682C37.5665 33.7682 37.4427 33.7457 37.3413 33.7007C37.24 33.6556 37.1556 33.5853 37.088 33.4896C37.0204 33.3939 36.9726 33.2728 36.9444 33.1264C36.9163 32.9801 36.9022 32.8056 36.9022 32.6029V22.25L35.1796 22.5033V33.3629C35.1796 33.6894 35.2246 33.9681 35.3147 34.1989C35.4047 34.4297 35.5342 34.6183 35.7031 34.7647C35.872 34.911 36.0719 35.0152 36.3027 35.0771C36.5335 35.139 36.784 35.17 37.0542 35.17C37.1893 35.17 37.3188 35.1644 37.4427 35.1531C37.5665 35.1419 37.6876 35.125 37.8058 35.1024C37.924 35.0799 38.0225 35.0574 38.1013 35.0349L38.2702 33.7007L38.0676 33.7344C38 33.7457 37.9409 33.7541 37.8902 33.7598ZM47.5422 33.9202C47.6323 33.909 47.728 33.8864 47.8293 33.8527L47.6436 34.9842C47.5873 35.0067 47.5225 35.0264 47.4493 35.0433C47.3762 35.0602 47.2945 35.0799 47.2044 35.1024C47.1144 35.125 47.0215 35.139 46.9258 35.1447C46.8301 35.1503 46.7316 35.1531 46.6302 35.1531C46.2699 35.1531 45.949 35.094 45.6676 34.9758C45.3861 34.8576 45.1665 34.6661 45.0089 34.4016C44.9244 34.2608 44.8653 34.0947 44.8259 33.9033C44.719 34.0272 44.6092 34.1482 44.4938 34.258C44.1842 34.5507 43.8295 34.7759 43.4298 34.9336C43.0301 35.0912 42.5544 35.17 42.0027 35.17C41.4059 35.17 40.9077 35.0574 40.508 34.8322C40.1083 34.607 39.8099 34.3115 39.6129 33.9456C39.4159 33.5796 39.3173 33.1827 39.3173 32.7549C39.3173 32.3045 39.444 31.8907 39.6973 31.5136C39.9507 31.1364 40.3363 30.8239 40.8542 30.5762C41.3722 30.3285 42.0252 30.1821 42.8133 30.1371L44.7865 30.0048V29.5826C44.7865 29.2561 44.7556 28.9718 44.688 28.7297C44.6204 28.4876 44.5079 28.2878 44.3502 28.1301C44.1926 27.9725 43.9759 27.8543 43.7 27.7755C43.4242 27.6967 43.0836 27.6573 42.6782 27.6573C42.453 27.6573 42.225 27.6657 41.9942 27.6826C41.7634 27.6995 41.5298 27.7304 41.2933 27.7755C41.0569 27.8205 40.812 27.8768 40.5587 27.9444C40.3053 28.0119 40.0379 28.0964 39.7565 28.1977L39.9591 26.7621C40.2406 26.6496 40.5362 26.551 40.8458 26.4666C41.1554 26.3821 41.4847 26.3174 41.8338 26.2724C42.1828 26.2273 42.5375 26.2048 42.8978 26.2048C43.3932 26.2048 43.8379 26.2499 44.232 26.3399C44.6261 26.43 44.9667 26.5595 45.2538 26.7284C45.5409 26.8973 45.7745 27.1056 45.9547 27.3533C46.1348 27.601 46.2699 27.8881 46.36 28.2146C46.4501 28.5411 46.4951 28.9014 46.4951 29.2955L46.4613 32.7746C46.4501 33.1912 46.512 33.4896 46.6471 33.6697C46.7822 33.8499 47.0018 33.9399 47.3058 33.9399C47.3733 33.9399 47.4521 33.9343 47.5422 33.923V33.9202ZM44.7753 32.9097L44.7837 31.2349H43.3059C42.7542 31.2349 42.3151 31.2799 41.9886 31.37C41.6621 31.4601 41.4256 31.6008 41.2793 31.7922C41.1329 31.9836 41.0597 32.2482 41.0597 32.586C41.0597 32.845 41.116 33.0673 41.2286 33.2531C41.3412 33.4389 41.5073 33.5824 41.7268 33.6838C41.9464 33.7851 42.2138 33.8358 42.529 33.8358C42.7767 33.8358 43.016 33.8133 43.2468 33.7682C43.4776 33.7232 43.6972 33.65 43.9055 33.5487C44.1138 33.4473 44.3108 33.3235 44.4966 33.1771C44.5951 33.0983 44.688 33.0082 44.7781 32.9125L44.7753 32.9097ZM56.0542 26.5539C55.6264 26.3174 55.0859 26.1992 54.4329 26.1992C53.9487 26.1992 53.4674 26.2752 52.9889 26.4272C52.5104 26.5792 52.0572 26.7959 51.6293 27.0774C51.4661 27.1844 51.3084 27.3026 51.1564 27.4236V26.2161L49.4338 26.4694V34.9983H51.1564V28.5833C51.3225 28.4876 51.4914 28.3976 51.6716 28.3187C51.9136 28.2118 52.1557 28.1189 52.3978 28.0401C52.6399 27.9613 52.8819 27.9021 53.124 27.8627C53.3661 27.8233 53.5997 27.8036 53.8249 27.8036C54.1402 27.8036 54.4104 27.8459 54.6356 27.9303C54.8607 28.0147 55.0465 28.1414 55.1929 28.3103C55.3393 28.4792 55.4462 28.6931 55.5138 28.9521C55.5813 29.211 55.6151 29.515 55.6151 29.8641V34.9983H57.3378V29.5094C57.3378 28.7438 57.2308 28.1189 57.0169 27.6347C56.803 27.1506 56.4821 26.7903 56.0542 26.5539ZM67.5218 22.2669V35.0011H66.12L65.9089 34.2214C65.7822 34.3143 65.6556 34.4016 65.5289 34.4776C65.1461 34.714 64.7548 34.8885 64.3551 35.0011C63.9554 35.1137 63.5304 35.17 63.08 35.17C62.3031 35.17 61.636 34.9983 61.0787 34.6549C60.5213 34.3115 60.0935 33.8245 59.7951 33.194C59.4967 32.5635 59.3476 31.8147 59.3476 30.9478C59.3476 29.9344 59.5446 29.0759 59.9387 28.3722C60.3327 27.6685 60.8535 27.1309 61.5009 26.7593C62.1483 26.3878 62.8492 26.202 63.6036 26.202C64.0314 26.202 64.4227 26.2386 64.7773 26.3118C65.132 26.385 65.4557 26.4779 65.7485 26.5904C65.7653 26.5961 65.7822 26.6045 65.7991 26.613V22.5033L67.5218 22.2669ZM65.7991 33.1124V27.9078C65.7119 27.8768 65.619 27.8402 65.5373 27.8149C65.2727 27.7304 65.011 27.6685 64.752 27.6291C64.493 27.5897 64.2228 27.57 63.9413 27.57C63.3559 27.57 62.852 27.691 62.4298 27.9331C62.0076 28.1752 61.6839 28.5299 61.4587 28.9971C61.2335 29.4644 61.1209 30.047 61.1209 30.7451C61.1209 31.4432 61.2222 32.0033 61.4249 32.4593C61.6276 32.9153 61.9203 33.2531 62.3031 33.4727C62.6859 33.6922 63.1476 33.802 63.688 33.802C64.0483 33.802 64.4508 33.7204 64.8956 33.5571C65.1799 33.453 65.481 33.301 65.7991 33.1124Z" fill="#9FDAF5"/>
</g>
<defs>
<clipPath id="clip0_5918_1186">
<rect width="68" height="14" fill="white" transform="translate(0 22)"/>
</clipPath>
</defs>
</svg>

<svg xmlns="http://www.w3.org/2000/svg" viewBox="0 0 68 41"><path fill="#fff" d="M0 17.998v-12h4v12H0Zm9.244-10.09 2.264 10.09H7.2l-2.704-12h2.417a2.276 2.276 0 0 1 1.513.55c.42.346.66.826.819 1.36ZM12 17.998v-12h4v12h-4Zm7.01-7.436a2.381 2.381 0 0 1-2.078-1.192 2.345 2.345 0 0 1-.321-1.208 2.301 2.301 0 0 1 .321-1.2A2.41 2.41 0 0 1 20.21 6.1c.356.21.653.506.862.862.215.363.326.778.321 1.2a2.35 2.35 0 0 1-.321 1.208 2.4 2.4 0 0 1-.862.87 2.301 2.301 0 0 1-1.2.322ZM22 17.998v-12h4v12h-4Zm8.974-5.442c.01.011.095.15.253.414s.364.602.617 1.014a316.22 316.22 0 0 1 1.597 2.62c.247.41.529.876.845 1.394H29.96c-.27-.44-.516-.837-.736-1.192-.22-.355-.453-.738-.7-1.15-.248-.41-.493-.81-.736-1.199-.242-.39-.45-.73-.625-1.022a18.04 18.04 0 0 0-.363-.592 1.747 1.747 0 0 1-.287-.845c.016-.29.11-.57.27-.811.067-.113.191-.313.371-.6a182.106 182.106 0 0 0 1.37-2.23l.7-1.159.736-1.2h4.326l-3.346 5.46a1.079 1.079 0 0 0-.17.54c.012.202.083.396.204.558Z"/><g clip-path="url(#a)"><path fill="#9FDAF5" d="M8.765 23.01h1.757L6.35 35.001H4.155L0 23.01h1.892l2.465 7.397c.135.383.268.791.397 1.225.13.433.256.87.38 1.309l.186.672a89.09 89.09 0 0 1 .549-1.922c.13-.428.256-.833.38-1.216l2.516-7.465Zm9.652 6.012c.141.608.172 1.306.093 2.095h-6.102c.022.43.081.802.183 1.114.13.394.32.707.574.938.253.23.566.394.937.49.372.095.81.143 1.318.143.247 0 .495-.014.743-.042.247-.028.49-.073.726-.135.236-.062.464-.133.684-.211l.65-.237-.118 1.3a6.331 6.331 0 0 1-.912.389 5.701 5.701 0 0 1-.971.228 8.24 8.24 0 0 1-1.19.076c-.947 0-1.746-.166-2.4-.498a3.303 3.303 0 0 1-1.477-1.47c-.332-.647-.498-1.432-.498-2.356 0-.698.093-1.331.279-1.9a4.14 4.14 0 0 1 .81-1.46c.355-.406.786-.721 1.292-.946.507-.225 1.081-.338 1.723-.338.642 0 1.213.107 1.714.32a3.06 3.06 0 0 1 1.241.955c.327.422.56.937.701 1.545Zm-5.759-.092c-.104.275-.171.61-.214.988h4.442c0-.338-.04-.656-.124-.946-.13-.45-.357-.802-.684-1.056-.326-.253-.76-.38-1.3-.38s-.957.116-1.318.346c-.36.231-.627.58-.802 1.048Zm13.3 2.187a2.537 2.537 0 0 0-.59-.465 4.517 4.517 0 0 0-.71-.33c-.18-.055-.358-.114-.532-.176a9.301 9.301 0 0 0-.524-.17c-.174-.05-.343-.104-.506-.16a3.684 3.684 0 0 1-.448-.186 2.994 2.994 0 0 1-.397-.253 1.113 1.113 0 0 1-.287-.32.814.814 0 0 1-.11-.423c0-.18.04-.335.118-.464a.961.961 0 0 1 .355-.33c.158-.09.346-.157.566-.202.22-.046.47-.068.751-.068a5.293 5.293 0 0 1 .887.076c.175.028.35.065.524.11.174.045.352.096.532.152.18.056.343.118.49.186l.118-1.368a7.986 7.986 0 0 0-.634-.237 6.207 6.207 0 0 0-.633-.169 5.064 5.064 0 0 0-.633-.093 7.622 7.622 0 0 0-.617-.025c-.506 0-.968.053-1.385.16a3.49 3.49 0 0 0-1.089.473c-.31.209-.549.473-.718.794-.169.321-.253.701-.253 1.14 0 .315.045.594.135.836.09.242.208.448.355.617.146.168.318.318.515.447.197.13.408.24.633.33a15.182 15.182 0 0 0 .785.261 31.179 31.179 0 0 1 .744.237c.118.04.233.076.346.11.157.056.304.12.439.194.135.073.25.152.346.236a.865.865 0 0 1 .296.667c0 .282-.093.504-.279.667a1.62 1.62 0 0 1-.726.347 4.317 4.317 0 0 1-.954.1c-.18 0-.38-.013-.6-.041a8.932 8.932 0 0 1-.692-.119c-.242-.05-.49-.112-.744-.185-.253-.073-.509-.155-.768-.245l.068 1.435c.292.102.56.183.802.245s.473.116.692.16c.22.046.434.074.642.085.208.011.42.017.633.017.496 0 .963-.048 1.402-.144.44-.095.822-.244 1.149-.447.326-.203.582-.467.768-.794.186-.326.279-.715.279-1.165 0-.338-.048-.628-.144-.87a1.978 1.978 0 0 0-.397-.633Zm7.018 2.525-.288.05a2.491 2.491 0 0 1-.278.034c-.09.006-.175.008-.254.008-.292 0-.543-.05-.751-.152a1.09 1.09 0 0 1-.481-.447 1.425 1.425 0 0 1-.17-.718V27.74h2.382l.186-1.351h-2.567v-2.669l-1.723.608v2.06h-1.3l-.186 1.352h1.486v5.033c0 .383.05.712.152.988.101.276.234.504.397.684.163.18.355.32.574.422.22.101.453.175.701.22.248.045.49.067.726.067.18 0 .358-.005.532-.017a5.503 5.503 0 0 0 .895-.126c.13-.029.24-.054.33-.076l.101-1.402a1.266 1.266 0 0 1-.203.059 7.353 7.353 0 0 1-.261.05Zm4.914.118c-.05.005-.11.008-.177.008a.914.914 0 0 1-.372-.067.61.61 0 0 1-.253-.211.927.927 0 0 1-.144-.364 2.815 2.815 0 0 1-.042-.523V22.25l-1.722.253v10.86c0 .326.045.605.135.836.09.23.22.42.388.566.169.146.369.25.6.312.23.062.481.093.751.093.135 0 .265-.006.389-.017a3.716 3.716 0 0 0 .658-.118l.17-1.334-.203.033c-.068.012-.127.02-.178.026Zm9.652.16a1.5 1.5 0 0 0 .287-.067l-.185 1.131a1.336 1.336 0 0 1-.195.06c-.073.016-.154.036-.245.058a1.51 1.51 0 0 1-.278.043 5.061 5.061 0 0 1-.296.008c-.36 0-.681-.059-.962-.177a1.364 1.364 0 0 1-.66-.574 1.58 1.58 0 0 1-.182-.499 4.97 4.97 0 0 1-.332.355c-.31.293-.664.518-1.064.676-.4.157-.876.236-1.427.236-.597 0-1.095-.113-1.495-.338-.4-.225-.698-.52-.895-.886a2.473 2.473 0 0 1-.296-1.191c0-.45.127-.864.38-1.241.254-.378.64-.69 1.157-.938.518-.248 1.171-.394 1.96-.439l1.972-.132v-.422c0-.327-.03-.611-.098-.853a1.338 1.338 0 0 0-.338-.6c-.157-.157-.374-.276-.65-.354a3.774 3.774 0 0 0-1.022-.119c-.225 0-.453.009-.684.026a6.13 6.13 0 0 0-.7.093 9.905 9.905 0 0 0-1.537.422l.202-1.436c.282-.112.577-.211.887-.295.31-.085.639-.15.988-.195a8.294 8.294 0 0 1 1.064-.067c.495 0 .94.045 1.334.135.394.09.735.22 1.022.388.287.17.52.378.7.625.18.248.316.535.406.862.09.326.135.686.135 1.08l-.034 3.48c-.01.416.051.715.186.895.135.18.355.27.659.27.067 0 .146-.006.236-.017v-.003Zm-2.767-1.01.009-1.675h-1.478c-.552 0-.99.045-1.317.135-.327.09-.563.23-.71.422-.146.192-.22.456-.22.794 0 .259.057.481.17.667.112.186.278.33.498.43.22.102.487.153.802.153.248 0 .487-.023.718-.068.23-.045.45-.118.659-.22a2.757 2.757 0 0 0 .873-.636l-.004-.002Zm11.28-6.356c-.429-.237-.97-.355-1.622-.355-.484 0-.966.076-1.444.228a5.486 5.486 0 0 0-1.36.65c-.163.107-.32.226-.473.347v-1.208l-1.722.253V35h1.722v-6.416c.166-.095.335-.185.516-.264.242-.107.484-.2.726-.279.242-.079.484-.138.726-.177.242-.04.476-.06.7-.06.316 0 .586.043.812.127.225.085.41.211.557.38.146.17.253.383.32.642.068.259.102.563.102.912v5.134h1.723V29.51c0-.765-.107-1.39-.321-1.874-.214-.484-.535-.845-.963-1.081Zm11.467-4.287V35H66.12l-.211-.78c-.127.093-.253.18-.38.257-.383.236-.774.41-1.174.523-.4.113-.825.169-1.275.169-.777 0-1.444-.172-2.001-.515a3.353 3.353 0 0 1-1.284-1.461c-.298-.63-.447-1.38-.447-2.246 0-1.014.197-1.872.59-2.576.395-.703.915-1.241 1.563-1.613a4.153 4.153 0 0 1 2.103-.557 5.817 5.817 0 0 1 2.145.388.407.407 0 0 1 .05.023v-4.11l1.723-.236Zm-1.723 10.845v-5.204c-.087-.031-.18-.068-.262-.093a5.103 5.103 0 0 0-1.596-.245c-.585 0-1.089.121-1.511.363a2.382 2.382 0 0 0-.971 1.064c-.226.467-.338 1.05-.338 1.748s.101 1.258.304 1.714c.203.456.495.794.878 1.014.383.22.845.329 1.385.329.36 0 .763-.082 1.208-.245.284-.104.585-.256.903-.445Z"/></g><defs><clipPath id="a"><path fill="#fff" d="M0 22h68v14H0z"/></clipPath></defs></svg>
